Newaita-dark/apps/48/gmail-offline.svg

<svg height="48" viewBox="0 0 48 48" width="48" xmlns="http://www.w3.org/2000/svg" xmlns:xlink="http://www.w3.org/1999/xlink"><linearGradient id="a" gradientUnits="userSpaceOnUse" x1="23.81478" x2="23.81478" y1="40.0663405" y2="42.05090650005"><stop offset="0" stop-opacity=".27451"/><stop offset="1" stop-opacity="0"/></linearGradient><linearGradient id="b"><stop offset="0" stop-opacity=".313726"/><stop offset=".222222" stop-opacity=".27451"/><stop offset="1" stop-opacity="0"/></linearGradient><radialGradient id="c" cx="450.908936" cy="189.579361" gradientTransform="matrix(.00000026 -.117199 -.210958 -.00000015 80.180536 93.408435)" gradientUnits="userSpaceOnUse" r="21.166656" xlink:href="#b"/><radialGradient id="d" cx="450.908936" cy="189.579361" gradientTransform="matrix(-.00000026 .117199 .210958 .00000015 -32.550992 -13.275782)" gradientUnits="userSpaceOnUse" r="21.166656" xlink:href="#b"/><radialGradient id="e" cx="450.908936" cy="189.579361" gradientTransform="matrix(-.00000026 -.117199 .210958 -.00000015 -32.550992 93.408435)" gradientUnits="userSpaceOnUse" r="21.166656" xlink:href="#b"/><radialGradient id="f" cx="450.908936" cy="189.579361" gradientTransform="matrix(.00000026 .117199 -.210958 .00000015 80.180533 -13.275783)" gradientUnits="userSpaceOnUse" r="21.166656" xlink:href="#b"/><linearGradient id="g"><stop offset="0" stop-color="#78909c"/><stop offset="1" stop-color="#90a4ae"/></linearGradient><linearGradient id="h" gradientTransform="matrix(.113024 0 0 .326118 -8.781019 50.462019)" gradientUnits="userSpaceOnUse" x1="305.954559" x2="305.954559" xlink:href="#g" y1="-31.87709" y2="-135.329163"/><linearGradient id="i" gradientUnits="userSpaceOnUse" x1="23.814816" x2="23.814816" xlink:href="#g" y1="27.16670580616" y2="6.32874066504"/><path d="m6.945312 40.066406h33.738282v1.929688h-33.738282zm0 0" fill="url(#a)"/><path d="m40.683594 40.066406h3.96875v-1.984375h-3.96875zm0 0" fill="url(#c)"/><path d="m6.945312 40.066406h-3.96875v1.984375h3.96875zm0 0" fill="url(#d)"/><path d="m6.945312 40.066406h-3.96875v-1.984375h3.96875zm0 0" fill="url(#e)"/><path d="m40.683594 40.066406h3.96875v1.984375h-3.96875zm0 0" fill="url(#f)"/><path d="m4.960938 6.328125h37.707031c1.097656 0 1.984375.890625 1.984375 1.984375v29.769531c0 1.097657-.886719 1.984375-1.984375 1.984375h-37.707031c-1.09375 0-1.984376-.886718-1.984376-1.984375v-29.769531c0-1.09375.890626-1.984375 1.984376-1.984375zm0 0" fill="#eee"/><path d="m4.960938 6.328125c-1.097657 0-1.984376.886719-1.984376 1.984375v.25c0-1.101562.886719-1.988281 1.984376-1.984375h37.707031c1.101562-.003906 1.984375.882813 1.984375 1.984375v-.25c0-1.097656-.882813-1.984375-1.984375-1.984375zm0 0" fill="#e6e6e6" fill-opacity=".937239"/><path d="m4.960938 6.328125c-1.097657 0-1.984376.886719-1.984376 1.984375v29.769531c0 1.097657.886719 1.984375 1.984376 1.984375h.992187v-33.738281zm36.714843 0v33.738281h.992188c1.101562 0 1.984375-.886718 1.984375-1.984375v-29.769531c0-1.097656-.882813-1.984375-1.984375-1.984375zm0 0" fill="url(#h)"/><path d="m444.499219 212.334192v-322.802508" fill="none" stroke="#212121" stroke-width="3" transform="matrix(.093759 0 0 .093759 0 20.158175)"/><path d="m63.493937 212.334192v-322.802508" fill="none" stroke="#212121" stroke-width="3" transform="matrix(.093759 0 0 .093759 0 20.158175)"/><path d="m4.960938 6.328125c-1.097657 0-1.984376.773437-1.984376 1.738281l18.855469 18.605469c.742188.742187 1.363281 1.113281 1.984375 1.113281.617188 0 1.238282-.371094 1.984375-1.113281l18.851563-18.605469c0-.964844-.882813-1.738281-1.984375-1.738281zm0 0" fill="url(#i)"/><path d="m5.457031 6.328125 17.035157 16.933594c.496093.511719.910156.765625 1.324218.765625.410156 0 .824219-.253906 1.320313-.765625l17.53125-16.933594zm0 0" fill="#eee"/><path d="m3.304688 8.34375c-.207032.277344-.328126.605469-.328126.960938l18.855469 18.605468c.742188.746094 1.363281 1.117188 1.984375 1.117188.617188 0 1.238282-.371094 1.984375-1.117188l18.851563-18.605468c0-.355469-.121094-.683594-.328125-.960938l-18.523438 18.28125c-.746093.746094-1.367187 1.117188-1.984375 1.117188-.621094 0-1.242187-.371094-1.984375-1.117188zm0 0" fill-opacity=".235294"/><path d="m2.976562 37.566406v.371094c0 1.101562.886719 1.984375 1.984376 1.984375h37.707031c1.101562 0 1.984375-.882813 1.984375-1.984375v-.371094c0 1.097656-.882813 1.984375-1.984375 1.984375h-37.707031c-1.097657 0-1.984376-.886719-1.984376-1.984375zm0 0" fill-opacity=".235294"/><path d="m4.960938 6.5c-1.097657 0-1.984376.777344-1.984376 1.738281l.039063.039063c.183594-.796875.980469-1.390625 1.945313-1.390625h37.707031c.964843 0 1.761719.59375 1.945312 1.390625l.039063-.039063c0-.960937-.882813-1.738281-1.984375-1.738281zm0 0" fill="#fff" fill-opacity=".392157"/><path d="m4.960938 6.1875h-.003907c-.027343 0-.054687 0-.082031.003906-1.125.039063-2.039062.851563-2.039062 1.875l.011718.027344c-.007812.070312-.011718.144531-.011718.21875v29.769531c0 1.175781.949218 2.125 2.125 2.125h37.707031c1.175781 0 2.125-.949219 2.125-2.125v-29.769531c0-.074219-.003907-.148438-.011719-.21875l.011719-.027344c0-1.023437-.914063-1.835937-2.039063-1.875-.027344-.003906-.054687-.003906-.082031-.003906h-.003906zm0 .28125h.4375l16.996093 16.890625c.503907.523437.949219.808594 1.421875.808594.46875 0 .914063-.285157 1.417969-.804688l17.488281-16.890625c.902344.023438 1.632813.6875 1.769532 1.554688l-18.792969 18.542968c-.734375.734376-1.320313 1.074219-1.882813 1.074219-.566406 0-1.152344-.339843-1.886718-1.074219l-18.789063-18.542968c.132813-.886719.894531-1.558594 1.820313-1.558594zm.835937 0h36.523437l-17.28125 16.691406-.003906.003906c-.484375.5-.863281.722657-1.21875.722657-.355468 0-.738281-.222657-1.222656-.722657l-.003906-.003906zm38.714844 1.933594v29.679687c0 1.023438-.820313 1.84375-1.84375 1.84375h-37.707031c-1.023438 0-1.84375-.820312-1.84375-1.84375v-29.679687l18.613281 18.367187c.757812.757813 1.40625 1.15625 2.085937 1.15625.675782 0 1.328125-.398437 2.082032-1.15625zm0 0" fill="#212121"/></svg>

<?xml version="1.0" encoding="UTF-8"?>
<svg xmlns="http://www.w3.org/2000/svg" xmlns:xlink="http://www.w3.org/1999/xlink" width="48px" height="48px" viewBox="0 0 48 48" version="1.1">
<defs>
<linearGradient id="linear0" gradientUnits="userSpaceOnUse" x1="254" y1="233.5" x2="254" y2="254.666672" gradientTransform="matrix(0.093759,0,0,0.093759,-0.00000572259,18.173614)">
<stop offset="0" style="stop-color:rgb(0%,0%,0%);stop-opacity:0.27451;"/>
<stop offset="1" style="stop-color:rgb(0%,0%,0%);stop-opacity:0;"/>
</linearGradient>
<radialGradient id="radial0" gradientUnits="userSpaceOnUse" cx="450.908936" cy="189.579361" fx="450.908936" fy="189.579361" r="21.166656" gradientTransform="matrix(0.000000261256,-0.117199,-0.210958,-0.000000152308,80.180536,93.408435)">
<stop offset="0" style="stop-color:rgb(0%,0%,0%);stop-opacity:0.313726;"/>
<stop offset="0.222222" style="stop-color:rgb(0%,0%,0%);stop-opacity:0.27451;"/>
<stop offset="1" style="stop-color:rgb(0%,0%,0%);stop-opacity:0;"/>
</radialGradient>
<radialGradient id="radial1" gradientUnits="userSpaceOnUse" cx="450.908936" cy="189.579361" fx="450.908936" fy="189.579361" r="21.166656" gradientTransform="matrix(-0.000000261256,0.117199,0.210958,0.000000152308,-32.550992,-13.275782)">
<stop offset="0" style="stop-color:rgb(0%,0%,0%);stop-opacity:0.313726;"/>
<stop offset="0.222222" style="stop-color:rgb(0%,0%,0%);stop-opacity:0.27451;"/>
<stop offset="1" style="stop-color:rgb(0%,0%,0%);stop-opacity:0;"/>
</radialGradient>
<radialGradient id="radial2" gradientUnits="userSpaceOnUse" cx="450.908936" cy="189.579361" fx="450.908936" fy="189.579361" r="21.166656" gradientTransform="matrix(-0.000000261256,-0.117199,0.210958,-0.000000152308,-32.550992,93.408435)">
<stop offset="0" style="stop-color:rgb(0%,0%,0%);stop-opacity:0.313726;"/>
<stop offset="0.222222" style="stop-color:rgb(0%,0%,0%);stop-opacity:0.27451;"/>
<stop offset="1" style="stop-color:rgb(0%,0%,0%);stop-opacity:0;"/>
</radialGradient>
<radialGradient id="radial3" gradientUnits="userSpaceOnUse" cx="450.908936" cy="189.579361" fx="450.908936" fy="189.579361" r="21.166656" gradientTransform="matrix(0.000000261256,0.117199,-0.210958,0.000000152308,80.180533,-13.275783)">
<stop offset="0" style="stop-color:rgb(0%,0%,0%);stop-opacity:0.313726;"/>
<stop offset="0.222222" style="stop-color:rgb(0%,0%,0%);stop-opacity:0.27451;"/>
<stop offset="1" style="stop-color:rgb(0%,0%,0%);stop-opacity:0;"/>
</radialGradient>
<linearGradient id="linear1" gradientUnits="userSpaceOnUse" x1="305.954559" y1="-31.87709" x2="305.954559" y2="-135.329163" gradientTransform="matrix(0.113024,0,0,0.326118,-8.781019,50.462019)">
<stop offset="0" style="stop-color:rgb(47.058824%,56.470591%,61.176473%);stop-opacity:1;"/>
<stop offset="1" style="stop-color:rgb(56.470591%,64.313728%,68.235296%);stop-opacity:1;"/>
</linearGradient>
<linearGradient id="linear2" gradientUnits="userSpaceOnUse" x1="960" y1="1095.118164" x2="960" y2="255.118118" gradientTransform="matrix(0.0248071,0,0,0.0248071,0,0.00000000000000282)">
<stop offset="0" style="stop-color:rgb(47.058824%,56.470591%,61.176473%);stop-opacity:1;"/>
<stop offset="1" style="stop-color:rgb(56.470591%,64.313728%,68.235296%);stop-opacity:1;"/>
</linearGradient>
</defs>
<g id="surface1">
<path style=" stroke:none;fill-rule:nonzero;fill:url(#linear0);" d="M 6.945312 40.066406 L 40.683594 40.066406 L 40.683594 41.996094 L 6.945312 41.996094 Z M 6.945312 40.066406 "/>
<path style=" stroke:none;fill-rule:nonzero;fill:url(#radial0);" d="M 40.683594 40.066406 L 44.652344 40.066406 L 44.652344 38.082031 L 40.683594 38.082031 Z M 40.683594 40.066406 "/>
<path style=" stroke:none;fill-rule:nonzero;fill:url(#radial1);" d="M 6.945312 40.066406 L 2.976562 40.066406 L 2.976562 42.050781 L 6.945312 42.050781 Z M 6.945312 40.066406 "/>
<path style=" stroke:none;fill-rule:nonzero;fill:url(#radial2);" d="M 6.945312 40.066406 L 2.976562 40.066406 L 2.976562 38.082031 L 6.945312 38.082031 Z M 6.945312 40.066406 "/>
<path style=" stroke:none;fill-rule:nonzero;fill:url(#radial3);" d="M 40.683594 40.066406 L 44.652344 40.066406 L 44.652344 42.050781 L 40.683594 42.050781 Z M 40.683594 40.066406 "/>
<path style=" stroke:none;fill-rule:nonzero;fill:rgb(93.333334%,93.333334%,93.333334%);fill-opacity:1;" d="M 4.960938 6.328125 L 42.667969 6.328125 C 43.765625 6.328125 44.652344 7.21875 44.652344 8.3125 L 44.652344 38.082031 C 44.652344 39.179688 43.765625 40.066406 42.667969 40.066406 L 4.960938 40.066406 C 3.867188 40.066406 2.976562 39.179688 2.976562 38.082031 L 2.976562 8.3125 C 2.976562 7.21875 3.867188 6.328125 4.960938 6.328125 Z M 4.960938 6.328125 "/>
<path style=" stroke:none;fill-rule:nonzero;fill:rgb(90.196079%,90.196079%,90.196079%);fill-opacity:0.937239;" d="M 4.960938 6.328125 C 3.863281 6.328125 2.976562 7.214844 2.976562 8.3125 L 2.976562 8.5625 C 2.976562 7.460938 3.863281 6.574219 4.960938 6.578125 L 42.667969 6.578125 C 43.769531 6.574219 44.652344 7.460938 44.652344 8.5625 L 44.652344 8.3125 C 44.652344 7.214844 43.769531 6.328125 42.667969 6.328125 Z M 4.960938 6.328125 "/>
<path style=" stroke:none;fill-rule:nonzero;fill:url(#linear1);" d="M 4.960938 6.328125 C 3.863281 6.328125 2.976562 7.214844 2.976562 8.3125 L 2.976562 38.082031 C 2.976562 39.179688 3.863281 40.066406 4.960938 40.066406 L 5.953125 40.066406 L 5.953125 6.328125 Z M 41.675781 6.328125 L 41.675781 40.066406 L 42.667969 40.066406 C 43.769531 40.066406 44.652344 39.179688 44.652344 38.082031 L 44.652344 8.3125 C 44.652344 7.214844 43.769531 6.328125 42.667969 6.328125 Z M 41.675781 6.328125 "/>
<path style="fill:none;stroke-width:3;stroke-linecap:butt;stroke-linejoin:miter;stroke:rgb(12.941177%,12.941177%,12.941177%);stroke-opacity:1;stroke-miterlimit:4;" d="M 444.499219 212.334192 L 444.499219 -110.468316 " transform="matrix(0.093759,0,0,0.093759,0,20.158175)"/>
<path style="fill:none;stroke-width:3;stroke-linecap:butt;stroke-linejoin:miter;stroke:rgb(12.941177%,12.941177%,12.941177%);stroke-opacity:1;stroke-miterlimit:4;" d="M 63.493937 212.334192 L 63.493937 -110.468316 " transform="matrix(0.093759,0,0,0.093759,0,20.158175)"/>
<path style=" stroke:none;fill-rule:nonzero;fill:url(#linear2);" d="M 4.960938 6.328125 C 3.863281 6.328125 2.976562 7.101562 2.976562 8.066406 L 21.832031 26.671875 C 22.574219 27.414062 23.195312 27.785156 23.816406 27.785156 C 24.433594 27.785156 25.054688 27.414062 25.800781 26.671875 L 44.652344 8.066406 C 44.652344 7.101562 43.769531 6.328125 42.667969 6.328125 Z M 4.960938 6.328125 "/>
<path style=" stroke:none;fill-rule:nonzero;fill:rgb(93.333334%,93.333334%,93.333334%);fill-opacity:1;" d="M 5.457031 6.328125 L 22.492188 23.261719 C 22.988281 23.773438 23.402344 24.027344 23.816406 24.027344 C 24.226562 24.027344 24.640625 23.773438 25.136719 23.261719 L 42.667969 6.328125 Z M 5.457031 6.328125 "/>
<path style=" stroke:none;fill-rule:nonzero;fill:rgb(0%,0%,0%);fill-opacity:0.235294;" d="M 3.304688 8.34375 C 3.097656 8.621094 2.976562 8.949219 2.976562 9.304688 L 21.832031 27.910156 C 22.574219 28.65625 23.195312 29.027344 23.816406 29.027344 C 24.433594 29.027344 25.054688 28.65625 25.800781 27.910156 L 44.652344 9.304688 C 44.652344 8.949219 44.53125 8.621094 44.324219 8.34375 L 25.800781 26.625 C 25.054688 27.371094 24.433594 27.742188 23.816406 27.742188 C 23.195312 27.742188 22.574219 27.371094 21.832031 26.625 Z M 3.304688 8.34375 "/>
<path style=" stroke:none;fill-rule:nonzero;fill:rgb(0%,0%,0%);fill-opacity:0.235294;" d="M 2.976562 37.566406 L 2.976562 37.9375 C 2.976562 39.039062 3.863281 39.921875 4.960938 39.921875 L 42.667969 39.921875 C 43.769531 39.921875 44.652344 39.039062 44.652344 37.9375 L 44.652344 37.566406 C 44.652344 38.664062 43.769531 39.550781 42.667969 39.550781 L 4.960938 39.550781 C 3.863281 39.550781 2.976562 38.664062 2.976562 37.566406 Z M 2.976562 37.566406 "/>
<path style=" stroke:none;fill-rule:nonzero;fill:rgb(100%,100%,100%);fill-opacity:0.392157;" d="M 4.960938 6.5 C 3.863281 6.5 2.976562 7.277344 2.976562 8.238281 L 3.015625 8.277344 C 3.199219 7.480469 3.996094 6.886719 4.960938 6.886719 L 42.667969 6.886719 C 43.632812 6.886719 44.429688 7.480469 44.613281 8.277344 L 44.652344 8.238281 C 44.652344 7.277344 43.769531 6.5 42.667969 6.5 Z M 4.960938 6.5 "/>
<path style=" stroke:none;fill-rule:nonzero;fill:rgb(12.941177%,12.941177%,12.941177%);fill-opacity:1;" d="M 4.960938 6.1875 C 4.960938 6.1875 4.957031 6.1875 4.957031 6.1875 C 4.929688 6.1875 4.902344 6.1875 4.875 6.191406 C 3.75 6.230469 2.835938 7.042969 2.835938 8.066406 L 2.847656 8.09375 C 2.839844 8.164062 2.835938 8.238281 2.835938 8.3125 L 2.835938 38.082031 C 2.835938 39.257812 3.785156 40.207031 4.960938 40.207031 L 42.667969 40.207031 C 43.84375 40.207031 44.792969 39.257812 44.792969 38.082031 L 44.792969 8.3125 C 44.792969 8.238281 44.789062 8.164062 44.78125 8.09375 L 44.792969 8.066406 C 44.792969 7.042969 43.878906 6.230469 42.753906 6.191406 C 42.726562 6.1875 42.699219 6.1875 42.671875 6.1875 C 42.671875 6.1875 42.667969 6.1875 42.667969 6.1875 Z M 4.960938 6.46875 L 5.398438 6.46875 L 22.394531 23.359375 C 22.898438 23.882812 23.34375 24.167969 23.816406 24.167969 C 24.285156 24.167969 24.730469 23.882812 25.234375 23.363281 L 42.722656 6.472656 C 43.625 6.496094 44.355469 7.160156 44.492188 8.027344 L 25.699219 26.570312 C 24.964844 27.304688 24.378906 27.644531 23.816406 27.644531 C 23.25 27.644531 22.664062 27.304688 21.929688 26.570312 L 3.140625 8.027344 C 3.273438 7.140625 4.035156 6.46875 4.960938 6.46875 Z M 5.796875 6.46875 L 42.320312 6.46875 L 25.039062 23.160156 L 25.035156 23.164062 C 24.550781 23.664062 24.171875 23.886719 23.816406 23.886719 C 23.460938 23.886719 23.078125 23.664062 22.59375 23.164062 L 22.589844 23.160156 Z M 44.511719 8.402344 L 44.511719 38.082031 C 44.511719 39.105469 43.691406 39.925781 42.667969 39.925781 L 4.960938 39.925781 C 3.9375 39.925781 3.117188 39.105469 3.117188 38.082031 L 3.117188 8.402344 L 21.730469 26.769531 C 22.488281 27.527344 23.136719 27.925781 23.816406 27.925781 C 24.492188 27.925781 25.144531 27.527344 25.898438 26.769531 Z M 44.511719 8.402344 "/>
</g>
</svg>
